chrome/icons/sync.svg

<svg height="16" viewBox="0 0 1024 1024" width="16" xmlns="http://www.w3.org/2000/svg" xmlns:xlink="http://www.w3.org/1999/xlink">
  <path d="M1024,96L1024,352C1024,360.667 1020.83,368.167 1014.5,374.5C1008.17,380.833 1000.67,384 992,384L736,384C727.333,384 719.833,380.833 713.5,374.5C707.167,368.167 704,360.667 704,352C704,343.333 707.167,335.833 713.5,329.5C719.833,323.167 727.333,320 736,320L916.5,320C898.167,280 874.75,244.167 846.25,212.5C817.75,180.833 785.667,154 750,132C714.333,110 675.917,93.1667 634.75,81.5C593.583,69.8334 551.167,64.0001 507.5,64C470.5,64.0001 434.083,68.8334 398.25,78.5C362.417,88.1667 328.5,101.833 296.5,119.5C264.5,137.167 234.833,158.5 207.5,183.5C180.167,208.5 156.333,236.333 136,267C123,286.667 111.833,307.5 102.5,329.5C100.167,334.833 98.0833,340.333 96.25,346C94.4167,351.667 92.1667,357.167 89.5,362.5C85.8333,369.167 82,374.417 78,378.25C74,382.083 67.8333,384 59.5,384C50.8333,384 43.3333,380.833 37,374.5C30.6667,368.167 27.5,360.667 27.5,352C27.5,348 28,344.5 29,341.5C46.6667,291.5 71.5,245.667 103.5,204C135.5,162.333 172.5,126.333 214.5,96C256.5,65.6667 302.417,42.0834 352.25,25.25C402.083,8.41669 453.5,0 506.5,0C553.5,0 599.333,6 644,18C688.667,30 730.583,47.25 769.75,69.75C808.917,92.25 844.75,119.917 877.25,152.75C909.75,185.583 937.333,222.667 960,264L960,96C960,87.3334 963.167,79.8334 969.5,73.5C975.833,67.1667 983.333,64.0001 992,64C1000.67,64.0001 1008.17,67.1667 1014.5,73.5C1020.83,79.8334 1024,87.3334 1024,96ZM990,672C990,677.667 987.75,686.083 983.25,697.25C978.75,708.417 973.5,720 967.5,732C961.5,744 955.417,755.5 949.25,766.5C943.083,777.5 938.167,785.667 934.5,791C910.833,826.333 883.417,858.333 852.25,887C821.083,915.667 787.333,940.167 751,960.5C714.667,980.833 676.25,996.5 635.75,1007.5C595.25,1018.5 553.5,1024 510.5,1024C464.5,1024 419.75,1018.42 376.25,1007.25C332.75,996.083 291.75,979.75 253.25,958.25C214.75,936.75 179.333,910.333 147,879C114.667,847.667 87,812 64,772L64,928C64,936.667 60.8333,944.167 54.5,950.5C48.1667,956.833 40.6667,960 32,960C23.3333,960 15.8333,956.833 9.5,950.5C3.16667,944.167 0,936.667 0,928L0,672C0,663.333 3.16667,655.833 9.5,649.5C15.8333,643.167 23.3333,640 32,640L288,640C296.667,640 304.167,643.167 310.5,649.5C316.833,655.833 320,663.333 320,672C320,680.667 316.833,688.167 310.5,694.5C304.167,700.833 296.667,704 288,704L100.5,704C118.833,744 142.333,779.833 171,811.5C199.667,843.167 231.75,870 267.25,892C302.75,914 341.083,930.833 382.25,942.5C423.417,954.167 465.833,960 509.5,960C546.5,960 582.833,955.25 618.5,945.75C654.167,936.25 688.083,922.667 720.25,905C752.417,887.333 782.167,866 809.5,841C836.833,816 860.667,788 881,757C894,737.333 905.167,716.5 914.5,694.5C916.833,689.167 918.917,683.667 920.75,678C922.583,672.333 924.833,666.833 927.5,661.5C931.167,654.833 935,649.583 939,645.75C943,641.917 949.167,640 957.5,640C966.5,640 974.167,643.083 980.5,649.25C986.833,655.417 990,663 990,672Z" fill="context-fill" fill-opacity="context-fill-opacity">
  </path>
</svg>

<svg xmlns="http://www.w3.org/2000/svg" width="16" height="16" viewBox="0 0 1024 1024"><path fill="context-fill" fill-opacity="context-fill-opacity" d="M1024 96v256c0 8.667-3.17 16.167-9.5 22.5q-9.495 9.5-22.5 9.5H736q-13 0-22.5-9.5T704 352t9.5-22.5T736 320h180.5q-27.5-60-70.25-107.5T750 132 634.75 81.5 507.5 64Q452 64 398.25 78.5t-101.75 41-89 64T136 267q-19.5 29.5-33.5 62.5a177 177 0 0 0-6.25 16.5 118 118 0 0 1-6.75 16.5q-5.5 10-11.5 15.75T59.5 384q-13 0-22.5-9.5T27.5 352q0-6 1.5-10.5 26.5-75 74.5-137.5t111-108 137.75-70.75T506.5 0Q577 0 644 18t125.75 51.75 107.5 83T960 264V96q0-13 9.5-22.5T992 64q13.005 0 22.5 9.5c6.33 6.333 9.5 13.833 9.5 22.5m-34 576q0 8.5-6.75 25.25T967.5 732t-18.25 34.5T934.5 791q-35.5 53-82.25 96T751 960.5t-115.25 47T510.5 1024c-46 0-90.75-5.58-134.25-16.75q-65.25-16.75-123-49T147 879 64 772v156q0 13-9.5 22.5T32 960t-22.5-9.5T0 928V672q0-13 9.5-22.5T32 640h256q13 0 22.5 9.5T320 672t-9.5 22.5T288 704H100.5Q128 764 171 811.5t96.25 80.5 115 50.5T509.5 960q55.5 0 109-14.25T720.25 905t89.25-64 71.5-84q19.5-29.5 33.5-62.5a177 177 0 0 0 6.25-16.5 118 118 0 0 1 6.75-16.5q5.5-10 11.5-15.75t18.5-5.75q13.5 0 23 9.25T990 672"/></svg>
